X:1
T:Disciples of All Nations
T:Disciples of All Nations
T:Lowell Mason, 1823
T:Richard W. Adams, 2000
T:© 2000 Richard W. Adams. Reproduce or publish freely for Christian worship or devotions. Courtesy of the Cyber Hymnal™
T:© 2000 Richard W. Adams. Reproduce or publish freely for Christian worship or devotions. Courtesy of the Cyber Hymnal™
C:Lowell Mason, 1823
Z:© 2000 Richard W. Adams. Reproduce or publish freely for Christian worship or devotions.
Z:Courtesy of the Cyber Hymnal™
%%score ( 1 2 ) ( 3 4 )
L:1/8
Q:1/4=115
M:4/4
K:Eb
V:1 treble 
V:2 treble 
V:3 bass 
V:4 bass 
V:1
 [B,E]2 | [EG]2 [EB]2 [EB]2 [Ec]2 | [EB]4 [EG]2 [B,E]2 | [B,D]2 [B,E]2 [DA]2 [EG]2 | %4
w: 1.~Di-|sci- ples of all|na- tions, The|Lord calls us to|
w: 2.~Like|Sam- uel in the|tem- ple, When|came the mid- night|
w: 3.~Like|Gid- eon of Ma-|nas- seh, We|think our- selves too|
w: 4.~As|Ab- ra- ham gave|I- saac, As|par- ents so may|
w: 5.~As|Mo- ses stood in|E- gypt, And|God gave words to|
w: 6.~Like|Sam- son con- se-|crat- ed, If|we stay true to|
w: 7.~Like|Paul, there may be|suf- fering, And|heav- y the de-|
 ([EG]4 [DF]2) [B,E]2 | [EG]2 [EB]2 [EB]2 [Ec]2 | [EB]4 [EG]2 [DF]2 | [EG]2 [Gc]2 [FB]2 [E=A]2 | %8
w: make, * Bap-|tiz- ing new be-|liev- ers And|mak- ing i- dols|
w: call, * O-|bed- ient to his|mas- ter, He|hur- ried down the|
w: small, * But|God the Lord is|with us, A|tower that can- not|
w: we * Be|asked to give our|child- ren For|ser- vice full and|
w: speak, * So|will He give us|bold- ness, Though|we be frail and|
w: God, * He|gives us strength and|pow- er, The|Spir- it’s might- y|
w: mands, * But|heed not the re-|ject- ion, And|hold to His com-|
 [DB]6 [EB]2 | [Ge]2 [EB]2 [DA]2 [EG]2 | [Ec]4 [EB]2 [Ad]2 | [Ge]2 [EB]2 (BA) [EG]2 | %12
w: shake. He|shows us the ex-|am- ples, Of|how we should * re-|
w: hall. Not|ful- ly un- der-|stand- ing, Ig-|nor- ing an- * y|
w: fall. We|need no might- y|ar- my, No|wea- pons made * of|
w: free. If|asked, then, do not|fal- ter, But|send them on * their|
w: weak. His|Spir- it will em-|power us To|reach the sin- * ner’s|
w: rod. But|if we fall a-|way, then, Our|weak- ness will * re-|
w: mands. “Teach|all that I have|taught you, As|wit- ness- es * be|
 ([EG]4 [DF]2) [B,E]2 | [EG]2 [EB]2 [EB]2 [Ec]2 | [EB]4 [EG]2 [B,E]2 | [CF]2 [FA]2 [EG]2 [DF]2 | %16
w: spond, * In|Scrip- ture stor- ies|glor- ious Of|ser- vants now long|
w: fears, * He|gave cour- ag- eous|an- swer, “Speak,|Lord, Your ser- vant|
w: man; * Watch|God sup- ply the|help- ers, And|then re- veal the|
w: way * To|spread the wond- rous|tid- ings, That|night may turn to|
w: heart * And|bring the lost to|Je- sus, As|des- tined from the|
w: turn; * So|pray, stay loy- al,|faith- ful, And|God His might will|
w: true; * Tell|all the world My|Gos- pel, And|I will be with|
 E6 |] %17
w: gone.|
w: hears.”|
w: plan.|
w: day.|
w: start.|
w: lend.|
w: you.”|
V:2
 x2 | x8 | x8 | x8 | x8 | x8 | x8 | x8 | x8 | x8 | x8 | x4 E2 x2 | x8 | x8 | x8 | x8 | E6 |] %17
V:3
 [E,G,]2 | [E,B,]2 [E,G,]2 [E,G,]2 [E,A,]2 | [E,G,]4 [E,B,]2 [G,B,]2 | %3
 [A,B,]2 [G,B,]2 [F,B,]2 [E,B,]2 | [B,,B,]6 [E,G,]2 | [E,B,]2 [E,G,]2 [E,G,]2 [E,A,]2 | %6
 [E,G,]4 [E,B,]2 [D,B,]2 | [E,B,]2 [C,E]2 [F,D]2 [F,,C]2 | [B,,B,]6 [E,G,]2 | %9
 [E,B,]2 G,2 [F,B,]2 [E,B,]2 | A,4 [G,B,]2 [F,B,]2 | [E,B,]2 [E,G,]2 [D,B,]2 [E,B,]2 | %12
 [C,B,]6 [E,G,]2 | [E,B,]2 [E,G,]2 [E,G,]2 [E,A,]2 | [E,G,]4 [E,B,]2 [G,B,]2 | %15
 A,2 [F,C]2 B,2 [B,,A,]2 | [E,G,]6 |] %17
V:4
 x2 | x8 | x8 | x8 | x8 | x8 | x8 | x8 | x8 | x8 | A,4 x4 | x8 | x8 | x8 | x8 | A,2 B,2 x4 | x6 |] %17

